dist/svgs/core-ui-icons/free/cil-calendar.svg

<svg xmlns="http://www.w3.org/2000/svg" viewBox="0 0 512 512">
  <path fill="var(--ci-primary-color, currentColor)" d="M472,96H384V40H352V96H160V40H128V96H40a24.028,24.028,0,0,0-24,24V456a24.028,24.028,0,0,0,24,24H472a24.028,24.028,0,0,0,24-24V120A24.028,24.028,0,0,0,472,96Zm-8,352H48V128h80v40h32V128H352v40h32V128h80Z" class="ci-primary"/>
  <rect width="32" height="32" x="112" y="224" fill="var(--ci-primary-color, currentColor)" class="ci-primary"/>
  <rect width="32" height="32" x="200" y="224" fill="var(--ci-primary-color, currentColor)" class="ci-primary"/>
  <rect width="32" height="32" x="280" y="224" fill="var(--ci-primary-color, currentColor)" class="ci-primary"/>
  <rect width="32" height="32" x="368" y="224" fill="var(--ci-primary-color, currentColor)" class="ci-primary"/>
  <rect width="32" height="32" x="112" y="296" fill="var(--ci-primary-color, currentColor)" class="ci-primary"/>
  <rect width="32" height="32" x="200" y="296" fill="var(--ci-primary-color, currentColor)" class="ci-primary"/>
  <rect width="32" height="32" x="280" y="296" fill="var(--ci-primary-color, currentColor)" class="ci-primary"/>
  <rect width="32" height="32" x="368" y="296" fill="var(--ci-primary-color, currentColor)" class="ci-primary"/>
  <rect width="32" height="32" x="112" y="368" fill="var(--ci-primary-color, currentColor)" class="ci-primary"/>
  <rect width="32" height="32" x="200" y="368" fill="var(--ci-primary-color, currentColor)" class="ci-primary"/>
  <rect width="32" height="32" x="280" y="368" fill="var(--ci-primary-color, currentColor)" class="ci-primary"/>
  <rect width="32" height="32" x="368" y="368" fill="var(--ci-primary-color, currentColor)" class="ci-primary"/>
</svg>

<svg xmlns="http://www.w3.org/2000/svg" viewBox="0 0 512 512"><path d="M472 96h-88V40h-32v56H160V40h-32v56H40a24.028 24.028 0 00-24 24v336a24.028 24.028 0 0024 24h432a24.028 24.028 0 0024-24V120a24.028 24.028 0 00-24-24zm-8 352H48V128h80v40h32v-40h192v40h32v-40h80z"/><path d="M112 224h32v32h-32zm88 0h32v32h-32zm80 0h32v32h-32zm88 0h32v32h-32zm-256 72h32v32h-32zm88 0h32v32h-32zm80 0h32v32h-32zm88 0h32v32h-32zm-256 72h32v32h-32zm88 0h32v32h-32zm80 0h32v32h-32zm88 0h32v32h-32z"/></svg>
